icons/Document/book-open-line.svg

<svg viewBox="0 0 24 24" xmlns="http://www.w3.org/2000/svg"><path d="M13 21V23H11V21H3C2.44772 21 2 20.5523 2 20V4C2 3.44772 2.44772 3 3 3H9C10.1947 3 11.2671 3.52375 12 4.35418C12.7329 3.52375 13.8053 3 15 3H21C21.5523 3 22 3.44772 22 4V20C22 20.5523 21.5523 21 21 21H13ZM20 19V5H15C13.8954 5 13 5.89543 13 7V19H20ZM11 19V7C11 5.89543 10.1046 5 9 5H4V19H11Z"/></svg>

<svg xmlns="http://www.w3.org/2000/svg" viewBox="0 0 24 24">
    <g>
        <path fill="none" d="M0 0h24v24H0z"/>
        <path d="M13 21v2h-2v-2H3a1 1 0 0 1-1-1V4a1 1 0 0 1 1-1h6a3.99 3.99 0 0 1 3 1.354A3.99 3.99 0 0 1 15 3h6a1 1 0 0 1 1 1v16a1 1 0 0 1-1 1h-8zm7-2V5h-5a2 2 0 0 0-2 2v12h7zm-9 0V7a2 2 0 0 0-2-2H4v14h7z"/>
    </g>
</svg>
